!!!!SEGMENT: pl-wtm--r-2548--001-006_hertz-michal--jak-wam-sie-podoba-no-6.krn
!!!cenid: 18xx:3113
!!!COM: Hertz, Michał
!!!COM-rismID: pe41023359
!!!CDT: 1844/09/28-~1918
!!!CNT: Polish
!!!OPR: Jak wam się podoba
!!!OTL: No. 6
!!!OMV: 006
!!!PDT:
!!!AGN:
!!!YEC: Copyright 2022 Narodowy Instytut Fryderyka Chopina (https://polishscores.org)
!!!YEM: License CC-BY-4.0 (https://creativecommons.org/licenses/by/4.0)
!!!SMS-siglum: PL-Wtm
!!!SMS-shelfmark: R 2548
!!!SMS-shelfwork: 001-006 M
!!!SMS-variant:
!!!SMS-altvar:
!!!NIFC-rismSourceID: 1001082244
!!!NIFC-rismChildID: 1001082244
!!!NIFC-islandoraID:
!!!URL-pdf-islandora:
!!!URL-scan:
!!!IIIF:
!!!ONB-nifc:
!!!AIN: 2 piano 2 vox
!!!key: d
!!!OMD: Allegro mod.
**kern	**kern	**dynam	**kern	**text	**kern	**text	**dynam
*group3	*group3	*	*group2	*	*group2	*	*
*part4	*part3	*	*part2	*	*part1	*	*
*staff4	*staff3	*	*staff2	*	*staff1	*	*
*I"[Piano]	*I"[Piano]	*	*I"[Voce]	*	*I"[Coro]	*	*
*Ipiano	*Ipiano	*	*Ivox	*	*Ivox	*	*
*IGacmp	*IGacmp	*	*IGsolo	*	*IGcoro	*	*
*clefF4	*clefG2	*	*clefF4	*	*clefG2	*	*
*k[b-]	*k[b-]	*	*k[b-]	*	*k[b-]	*	*
*d:	*d:	*	*d:	*	*d:	*	*
*M6/4	*M6/4	*	*M6/4	*	*M6/4	*	*
=1	=1	=1	=1	=1	=1	=1	=1
*	*^	*	*	*	*	*	*
!	!	!	!LO:DY:rj	!	!	!	!	!
4.DD/	8r	1ryy	f	1.ryy	.	1.r	.	.
.	8F/ 8A/ 8d/	.	.	.	.	.	.	.
.	8A\L 8d\ 8f\	.	.	.	.	.	.	.
!	!LO:TX:t=P:problem=all\middle&colon; global	!	!	!	!	!	!	!
(<16EE/LL	8f\J 8a\ 8dd\	.	.	.	.	.	.	.
16FF/JJ)	.	.	.	.	.	.	.	.
!	!	!	!LO:HP:b=2	!	!	!	!	!
(<16GG/LL	(<4a\ [>\4dd (>\4ff	.	<	.	.	.	.	.
16AA/	.	.	.	.	.	.	.	.
16BBn/	.	.	.	.	.	.	.	.
16C#X/JJ)	.	.	.	.	.	.	.	.
4D\	8g\L) 8b-\) 8dd\]	.	.	.	.	.	.	.
.	8G\J 8B-\ 8d\	.	[	.	.	.	.	.
*	*	*2\right	*	*	*	*	*	*
4r	(>4g^>/	(<2B-\ [<\2d	.	.	.	.	.	.
4r	8f/L)	.	.	.	.	.	.	.
.	8e/J	.	.	.	.	.	.	.
=2	=2	=2	=2	=2	=2	=2	=2	=2
4.DD/	8A/L) 8d/] 8f/	1ryy	p	1.ryy	.	1.r	.	.
.	8F/J 8A/ 8d/	.	.	.	.	.	.	.
.	8A\L 8d\ 8f\	.	.	.	.	.	.	.
(<16EE/LL	8f\J 8a\ 8cc\	.	.	.	.	.	.	.
16FF/JJ)	.	.	.	.	.	.	.	.
!	!LO:TX:t=P:4\left:problem	!	!LO:HP:b=2	!	!	!	!	!
(<16GG/LL	(<4a\ [<\4dd (>\4ff	.	<	.	.	.	.	.
16AA/	.	.	.	.	.	.	.	.
16BBn/	.	.	.	.	.	.	.	.
16C#X/JJ)	.	.	.	.	.	.	.	.
4D\	8g\L) 8b-\) 8dd\]	.	.	.	.	.	.	.
.	8G\J 8B-\ 8d\	.	[	.	.	.	.	.
.	(<16qqg/LL	.	.	.	.	.	.	.
.	16qqa/JJ)	.	.	.	.	.	.	.
4r	(>4g^>/	(<2B-\ [<\2d	.	.	.	.	.	.
4r	8f/L)	.	.	.	.	.	.	.
.	8e/J	.	.	.	.	.	.	.
*	*v	*v	*	*	*	*	*	*
!!LO:LB:g=original
=3	=3	=3	=3	=3	=3	=3	=3
!	!	!LO:DY:b	!	!	!	!	!LO:DY:b:rj
[<2.DD/	8A/L) 8d/] 8f/	p	1.ryy	.	(<4.d/	Stürm,	p
.	8F/J 8A/ 8d/	.	.	.	.	.	.
.	2A/ 2d/ 2f/	.	.	.	.	.	.
.	.	.	.	.	8e/)	.	.
.	.	.	.	.	4f/	ach	.
8DD/L]	8r	.	.	.	(<4a/	stürm,	.
!	!	!LO:HP:b=2	!	!	!	!	!
(<16EE/L	8f\ 8a\ 8dd\	<	.	.	.	.	.
16FF/JJ)	.	.	.	.	.	.	.
(<16GG/LL	2a\ 2dd\ 2ff\	.	.	.	4f/)	.	.
16AA/	.	.	.	.	.	.	.
16BBn/	.	.	.	.	.	.	.
16C#X/JJ)	.	.	.	.	.	.	.
8D\	.	[	.	.	4r	.	.
8r	.	.	.	.	.	.	.
=4	=4	=4	=4	=4	=4	=4	=4
*	*^	*	*	*	*	*	*
[<2.DD/	8r	8ryy	.	1.ryy	.	(<4.g/	du,	.
.	8d/	8G\ 8B-\	.	.	.	.	.	.
.	(>4g/	[<2B-\ [<\2d	.	.	.	.	.	.
.	.	.	.	.	.	8a/	.	.
!	!	!	!	!	!	!LO:TX:t=P:problem=all\middle&colon; global	!	!
.	8f/L)	.	.	.	.	4b-\)	.	.
.	8e/J	.	.	.	.	.	.	.
8DD/L]	8g/L	8B-\] 8d\]	.	.	.	8.dd\	Win-	.
(<16EE/L	8dd/J	8r	.	.	.	.	.	.
16FF/JJ)	.	.	.	.	.	16b-\	-ter	.
!	!	!	!LO:HP:b=2	!	!	!	!	!
(<16GG/LL	(>4gg^>/	(<2b-\ [<\2dd	<	.	.	4b-\	wind!	.
16AA/	.	.	.	.	.	.	.	.
16BBn/	.	.	.	.	.	.	.	.
16C#X/JJ)	.	.	.	.	.	.	.	.
8D\	8ff/L)	.	.	.	.	4r	.	.
8r	8ee/J	.	[	.	.	.	.	.
*	*v	*v	*	*	*	*	*	*
=5	=5	=5	=5	=5	=5	=5	=5
*2\right	*	*	*	*	*	*	*
!	!	!LO:DY:rj	!	!	!	!	!LO:DY:b:rj
[>2.D\	8a\L) 8dd\] 8ff\	f	1.ryy	.	(>4.dd\	stürm,	f
.	8F\J 8A\ 8d\	.	.	.	.	.	.
.	2A^>/ 2d/ 2f/	.	.	.	.	.	.
.	.	.	.	.	8cc\)	.	.
.	.	.	.	.	4b-\	ach	.
!LO:TX:t=P:problem=8\right	!	!	!	!	!	!	!
8D\L]	8r	.	.	.	(>4b-\	stürm,	.
!	!	!LO:HP:b=2	!	!	!	!	!
(>16E\L	8f\ 8a\ 8dd\	<	.	.	.	.	.
16F\JJ)	.	.	.	.	.	.	.
(>16G\LL	2a^>\ 2dd\ 2ff\	.	.	.	4a/)	.	.
16A\	.	.	.	.	.	.	.
16Bn\	.	.	.	.	.	.	.
!LO:TX:t=P:problem=16\right	!	!	!	!	!	!	!
16c#X\JJ)	.	.	.	.	.	.	.
8d'>\	.	[	.	.	4r	.	.
8r	.	.	.	.	.	.	.
=6	=6	=6	=6	=6	=6	=6	=6
[<2.AA/	8r	.	1.ryy	.	(>4.a/	du	.
.	8A/ 8c#X/ 8e/	.	.	.	.	.	.
.	2c#^>/ 2e/ 2a/	.	.	.	.	.	.
.	.	.	.	.	8g/	.	.
.	.	.	.	.	4f/)	.	.
!LO:TX:t=P:problem=8\right	!	!	!	!	!	!	!
8AA\L]	8r	.	.	.	8.f/	Win-	.
!	!	!LO:HP:b=2	!	!	!	!	!
(>16BBn\L	8a\ 8cc#X\ 8ee\	<	.	.	.	.	.
16C#X\JJ)	.	.	.	.	16e/	-ter	.
(>16D\LL	2cc#^>\ 2ee\ 2aa\	.	.	.	4e/	wind!	.
16E\	.	.	.	.	.	.	.
16F\	.	.	.	.	.	.	.
16G\JJ)	.	.	.	.	.	.	.
8A'\	.	.	.	.	4r	.	.
8r	.	[	.	.	.	.	.
!!LO:LB:g=original
=7	=7	=7	=7	=7	=7	=7	=7
!	!	!LO:HP:b=2	!	!	!	!	!
!	!	!LO:DY:b:rj	!	!	!	!	!LO:DY:b:rj
(>4.D\	8r	p <	1.ryy	.	(<4.d/	Du	p
.	8F/ 8A/ 8d/	.	.	.	.	.	.
.	2A/ 2d/ 2f/	.	.	.	.	.	.
8C#X\	.	.	.	.	8e/)	.	.
4Cn\)	.	.	.	.	4f/	bist	.
8BBn\L	8r	.	.	.	(<4a/	nicht	.
(>16C\L	8f\ 8a\ 8dd\	.	.	.	.	.	.
16D\JJ)	.	.	.	.	.	.	.
(>16E\LL	2a\ 2dd\ 2ff\	.	.	.	4f/)	.	.
16F\	.	.	.	.	.	.	.
16G\	.	.	.	.	.	.	.
16A\JJ)	.	.	.	.	.	.	.
8Bn'>\	.	[	.	.	4r	.	.
8r	.	.	.	.	.	.	.
=8	=8	=8	=8	=8	=8	=8	=8
*	*^	*	*	*	*	*	*
!	!	!	!LO:DY:rj	!	!	!	!	!
!	!	!	!LO:HP:b=2	!	!	!	!	!
(<4.BB-X/	8r	4ryy	p <	1.ryy	.	(<4.g/	falsch	.
.	8G/ 8B-/ 8d/	.	.	.	.	.	.	.
.	(>4g^>/	[<2B-\ [<\2d	.	.	.	.	.	.
8AA/	.	.	.	.	.	8a/)	.	.
4GG/)	8f/L)	.	.	.	.	4b-\	ge-	.
.	8e/J	.	.	.	.	.	.	.
8FF\L	8g/L	8B-\] 8d\]	.	.	.	(>4dd\	-sinnt	.
(>16GG\L	8dd/J	8r	.	.	.	.	.	.
16AA\JJ)	.	.	.	.	.	.	.	.
(>16BB-\LL	(>4gg/	(<[<2b-\ 2dd\	.	.	.	4b-\)	.	.
16C\	.	.	.	.	.	.	.	.
16D\	.	.	.	.	.	.	.	.
16E\JJ)	.	.	.	.	.	.	.	.
(>8F\L	8ff/L)	.	.	.	.	4r	.	.
8G\J)	8ee/J	.	[	.	.	.	.	.
*	*v	*v	*	*	*	*	*	*
=9	=9	=9	=9	=9	=9	=9	=9
!	!	!LO:HP:b=2	!	!	!	!	!
!	!	!LO:DY:rj	!	!	!	!	!LO:DY:b:rj
(>4.E\	8b-\L]) 8cc\ 8gg\	f <	1.ryy	.	(>4.cc\	Wil	f
.	8G\J 8B-\ 8c\	.	.	.	.	.	.
.	2B-/ 2c/ 2g/	.	.	.	.	.	.
8D\	.	.	.	.	8dd\	.	.
4C\)	.	.	.	.	4ee\)	.	.
8F\L	8A/ 8c/ 8f/	.	.	.	(>4ff\	men-	.
(>16G\L	8r	.	.	.	.	.	.
16A\JJ)	.	.	.	.	.	.	.
!	!	!	!	!	!LO:TX:t=P:4\right:problem	!	!
(>16B-\LL	4r	.	.	.	4cc\)	.	.
16c\	.	.	.	.	.	.	.
16d\	.	.	.	.	.	.	.
16e\JJ)	.	.	.	.	.	.	.
8f'>\	4r	[[	.	.	4a/	-schen	.
8r	.	.	.	.	.	.	.
=10	=10	=10	=10	=10	=10	=10	=10
(<4.GG/	(>4.c\ 4.e\ 4.b-\	.	1.ryy	.	(>4.b-\	Un-	.
8AA/	8c/ 8e/ 8a/	.	.	.	8a/)	.	.
4C/)	4c/) 4e/ 4g/	.	.	.	4g/	-daut	.
(<4AA/	(<4c/ (</4e (>/4a	.	.	.	(>4a/	ist.	.
4D\)	4A/) 4d/) 4f/)	.	.	.	4f/)	.	.
!	!	!LO:DY:rj	!	!	!	!	!LO:DY:b:rj
4r	4F/ 4f/	p	.	.	4f/	Dein	p
!!LO:PB:g=original
=11	=11	=11	=11	=11	=11	=11	=11
*	*	*	*	*	*2\right	*	*
2.BBB-/ 2.BB-/	2.d/ 2.f/ 2.b-/	.	1.ryy	.	(>2b-\	Zahn	.
!	!	!	!	!	!LO:TX:t=P:problem=all\right&colon; global	!	!
.	.	.	.	.	4cc\)	.	.
2.FF\ 2.F\	2.c/ 2.f/ 2.a/	.	.	.	(<4.a/	nagt	.
.	.	.	.	.	8g/	.	.
.	.	.	.	.	4f/)	.	.
=12	=12	=12	=12	=12	=12	=12	=12
2.GG\ 2.G\	2.B-/ 2.d/ 2.g/	.	1.ryy	.	(<4.g/	nicht	.
.	.	.	.	.	8a/)	.	.
.	.	.	.	.	4b-\	so	.
*tremolo	*	*	*	*	*	*	*
(>32DD\LLL	2.A/ 2.d/ 2.f/	.	.	.	(>4dd\	sehr,	.
32D\	.	.	.	.	.	.	.
32DD\	.	.	.	.	.	.	.
32D\	.	.	.	.	.	.	.
32DD\	.	.	.	.	.	.	.
32D\	.	.	.	.	.	.	.
32DD\	.	.	.	.	.	.	.
32D\	.	.	.	.	.	.	.
32DD\	.	.	.	.	4a/	.	.
32D\	.	.	.	.	.	.	.
32DD\	.	.	.	.	.	.	.
32D\	.	.	.	.	.	.	.
32DD\	.	.	.	.	.	.	.
32D\	.	.	.	.	.	.	.
32DD\	.	.	.	.	.	.	.
32D\JJJ)	.	.	.	.	.	.	.
*Xtremolo	*	*	*	*	*	*	*
8DD/	.	.	.	.	4d/)	weil	.
8r	.	.	.	.	.	.	.
=13	=13	=13	=13	=13	=13	=13	=13
2.GGG/ 2.GG/	2.B-/ 2.d/ 2.g/	.	1.ryy	.	(<2g/	man	.
.	.	.	.	.	4a/)	.	.
2.DD\ 2.D\	2.A/ 2.d/ 2.f/	.	.	.	(<4.f/	nicht	.
.	.	.	.	.	8e/	.	.
.	.	.	.	.	4d/)	.	.
!!LO:LB:g=original
=14	=14	=14	=14	=14	=14	=14	=14
2.EE-X\ 2.E-X\	2.G/ 2.B-/ 2.e-X/	.	1.ryy	.	(<4.e-X/	weiss,	.
.	.	.	.	.	8f/)	.	.
.	.	.	.	.	4g/	wo-	.
*tremolo	*	*	*	*	*	*	*
(<32BBB-/LLL	2.F/ 2.B-/ 2.d/	.	.	.	(>4b-\	-her,	.
32BB-/	.	.	.	.	.	.	.
32BBB-/	.	.	.	.	.	.	.
32BB-/	.	.	.	.	.	.	.
32BBB-/	.	.	.	.	.	.	.
32BB-/	.	.	.	.	.	.	.
32BBB-/	.	.	.	.	.	.	.
32BB-/	.	.	.	.	.	.	.
32BBB-/	.	.	.	.	4g/)	.	.
32BB-/	.	.	.	.	.	.	.
32BBB-/	.	.	.	.	.	.	.
32BB-/	.	.	.	.	.	.	.
32BBB-/	.	.	.	.	.	.	.
32BB-/	.	.	.	.	.	.	.
32BBB-/	.	.	.	.	.	.	.
32BB-/JJJ)	.	.	.	.	.	.	.
*Xtremolo	*	*	*	*	*	*	*
8BBB-/	.	.	.	.	4r	.	.
8r	.	.	.	.	.	.	.
=15	=15	=15	=15	=15	=15	=15	=15
!LO:TX:b:t=poco a poco	!	!	!	!	!	!	!
[<2.GG/	[<2.G/ [</2.B- [>/2.d	.	1.ryy	.	4r	.	.
.	.	.	.	.	4d/	wie-	.
.	.	.	.	.	4e/	-wohl	.
!	!LO:TX:b=2:t=cre_scen_do:problem=dynamics with extention lines	!LO:HP:i:b=2:t=cre-scen-do:ext=ud	!	!	!	!	!
2GG/]	2G/] 2B-/] 2d/]	<	.	.	(>4f/	du	.
.	.	.	.	.	4d/)	.	.
8r	8r	.	.	.	4r	.	.
8GG#X/	8F/ 8Bn/ 8d/	.	.	.	.	.	.
=16	=16	=16	=16	=16	=16	=16	=16
[<2.AA/	[<2.F/ [</2.A [>/2.d	.	1.ryy	.	4r	.	.
.	.	.	.	.	4f/	hef-	.
.	.	.	.	.	4g/	-tig	.
2AA/]	2F/] 2A/] 2d/]	.	.	.	(>4a/	frist	.
.	.	.	.	.	4f/)	.	.
8r	8r	.	.	.	4r	.	.
8BB-/	8F/ 8A-X/ 8d/	.	.	.	.	.	.
!!LO:LB:g=original
=17	=17	=17	=17	=17	=17	=17	=17
[<1.AA	2.F#X/ 2.A/ 2.d/	.	1.ryy	.	4r	.	.
.	.	.	.	.	(<4f#X/	wie-	.
.	.	.	.	.	4g/)	.	.
.	2.A/ 2.d/ 2.f#X/	.	.	.	(>4.a/	-wohl	.
.	.	.	.	.	8bn\	.	.
.	.	.	.	.	8cc#X\)	.	.
.	.	.	.	.	8dd\	du	.
=18	=18	=18	=18	=18	=18	=18	=18
2.AA/_<	[<2.A/ [</2.c#X [>/2.g	.	1.ryy	.	[>2.ee\	hef-	.
!	!LO:TX:t=P:problem=8\right	!	!	!	!	!	!
4AA/_>	8A\L] 8c#\] 8g\]	.	.	.	8.ee\]	.	.
!	!LO:TX:t=P:problem=all\middle&colon; global	!	!	!	!	!	!
.	8A\ 8c#\ 8g\ 8a\	.	.	.	.	.	.
.	.	.	.	.	16a/	-tig	.
8AA/]	8A\ 8d\ 8g\ 8a\	[	.	.	4a/	frist.	.
8r	8A\J 8d#X\ 8g\ 8a\	.	.	.	.	.	.
4r	8A\ 8e\ 8g\ 8a\	.	.	.	4r	.	.
.	8r	.	.	.	.	.	.
=19	=19	=19	=19	=19	=19	=19	=19
*k[f#c#]	*k[f#c#]	*	*k[f#c#]	*	*k[f#c#]	*	*
!	!	!LO:DY:rj	!	!	!	!	!LO:DY:b:rj
(>8d\L	[<2d/ (</2f# (>/2a	f	1.ryy	.	8r	.	f
8c#\J)	.	.	.	.	8a/	Heis-	.
4cn\	.	.	.	.	4dd\	-sa	.
4B\	4d/]) 4g/)	.	.	.	8b\	singt	.
.	.	.	.	.	8g/	heis-	.
2A\	2d\ 2f#\ 2dd\	.	.	.	4dd\	-sas-	.
.	.	.	.	.	4a/	-sa!	.
!LO:TX:t=P:4\right:problem	!	!	!	!	!	!	!
4G\	4c#/ 4e/ 4a/	.	.	.	8r	.	.
.	.	.	.	.	8a/	den	.
!!LO:LB:g=original
=20	=20	=20	=20	=20	=20	=20	=20
(>4.F#\	4.d/ 4.a/	.	1.ryy	.	4.a/	grü-	.
8E\	8c#/ 8g/ 8a/	.	.	.	8cc#\	-nen	.
!LO:TX:t=P:4\right:problem	!	!	!	!	!	!	!
4D\)	4d/ 4f#/ 4a/	.	.	.	4dd\	den	.
(>4.C#/	4.e/ 4.g/ 4.a/	.	.	.	4ee\	Baü-	.
.	.	.	.	.	4a/	-men,	.
8BB/	8d/ 8g/ 8a/	.	.	.	.	.	.
8C#\L	8e/L 8g/ 8a/	.	.	.	4r	.	.
8E\J)	8c#/J 8g/ 8a/	.	.	.	.	.	.
=21	=21	=21	=21	=21	=21	=21	=21
8qD\	.	.	.	.	.	.	.
!LO:TX:t=P:problem=8\right	!	!	!	!	!	!	!
(>8d\L	[<2d/ (</2f# (>/2a	.	1.ryy	.	8r	.	.
8c#\J)	.	.	.	.	8a/	die	.
(>4cn\	.	.	.	.	4dd\	Freun-	.
8B\L)	4d/]) 4g/)	.	.	.	8b\	-schaft	.
8B-X\J	.	.	.	.	8g/	bist	.
(>4.A\	4.d/ 4.f#/ 4.a/	.	.	.	(>4ee\	falsh	.
.	.	.	.	.	4dd\)	.	.
8F#\	8d/ 8a/	.	.	.	.	.	.
4D\)	4d/ 4f#/ 4a/	.	.	.	8r	.	.
.	.	.	.	.	8a/	die	.
*	*	*	*clefG2	*	*	*	*
=22	=22	=22	=22	=22	=22	=22	=22
*	*	*	*k[f#c#]	*	*	*	*
*	*	*	*^	*	*	*	*
!	!	!	!LO:TX:a:t=Männerchor	!	!	!	!	!
(>4.C#\ 4.c#\	(>4.e\ 4.g\ 4.a\	.	2r	1ryy	.	2ee\	Lie-	.
!LO:TX:t=P:problem=all\right&colon; global	!	!	!	!	!	!	!	!
8BB\ 8B\	8e\ 8g\ 8b\	.	.	.	.	.	.	.
4AA\) 4A\	4e\) 4g\ 4cc#\	.	4r	.	.	8cc#\	-be	.
.	.	.	.	.	.	8a/	nur	.
!	!	!	!	!	!	!LO:TX:t=P:4\right:problem	!	!
(>4D\	[<4d\ (<\4f# (>\4dd	.	4r	.	.	4ff#\	Träŭ-	.
!	!	!	!	!	!	!LO:TX:t=P:4\right:problem	!	!
4F#\)	4d/])) 4a/	.	4r	4.ryy	.	4dd\	-men	.
8r	8r	.	8r	.	.	4r	.	.
!	!	!	!	!LO:TX:t=P:problem=all\middle&colon; global	!	!	!	!
8F#\	8d/ 8a/	.	8a/	8f#\	Heiss-	.	.	.
=23	=23	=23	=23	=23	=23	=23	=23	=23
!LO:TX:t=P:problem=all\middle&colon; global	!	!	!	!	!	!	!	!
(>4.A\	2.c#/ 2.e/ 2.a/	.	8a/	8a\	-as-	1.r	.	.
.	.	.	8a/	8a\	-sas-	.	.	.
.	.	.	4a/	8a\L	-sas	.	.	.
8G#X\	.	.	.	8g#X\J	.	.	.	.
4Gn\)	.	.	8a/	8gn\	singt	.	.	.
.	.	.	8a/	8g\	heiss-	.	.	.
!LO:TX:t=P:4\right:problem	!	!	!	!LO:TX:t=P:4\right:problem	!	!	!	!
(>4G\	(>4d\ 4b\	.	4b/	4g\	-as-	.	.	.
!LO:TX:t=P:4\right:problem	!	!	!	!	!	!	!	!
4F#\)	4d\) 4a\	.	4a/	4f#\	-sa!	.	.	.
8r	8r	.	4r	4ryy	.	.	.	.
8D\ 8d\	8d/ 8f#/ 8a/	.	.	.	.	.	.	.
!!LO:LB:g=original
=24	=24	=24	=24	=24	=24	=24	=24	=24
!LO:TX:t=P:problem=all\right&colon; global	!	!	!	!	!	!	!	!
8C#\ 8c#\	8e/ 8g/ 8a/	.	8e/ 8g/ 8a/	8c#\	heis-	1.r	.	.
8r	8r	.	8e/ 8g/ 8a/	8c#\	-sas-	.	.	.
!	!LO:TX:t=P:problem=all\right&colon; global	!	!	!	!	!	!	!
4.BB\ 4.B\	4.e\ 4.g\ 4.b\	.	4.e/ 4.g/ 4.b/	4.B\	-sa	.	.	.
8AA\ 8A\	8e\ 8a\ 8cc#\	.	8e/ 8g/ 8cc#/	8A\	singt	.	.	.
(>8FF#\L 8F#\	(>8a\L 8dd\	.	8dd/	8f#\ 8a\	heis-	.	.	.
8EE\J) 8E\	8a\J) 8cc#\ 8ee\	.	8a/ 8cc#/ 8ee/	8e\	-sas-	.	.	.
8DD\L 8D\	8a\L 8dd\ 8ff#\	.	4a/ 4dd/ 4ff#/	4d\	-sa!	.	.	.
16r	16r	.	.	.	.	.	.	.
16DD\Jk 16D\	16dd\Jk 16ff#\ 16aa\ 16ddd\	.	.	.	.	.	.	.
!LO:TX:t=P:problem=all\middle&colon; global	!	!	!	!	!	!	!	!
4FF#\ 4F#\	4a\ 4dd\ 4aa\	.	4r	4ryy	.	.	.	.
=25	=25	=25	=25	=25	=25	=25	=25	=25
(>4.AA\ 4.A\	2.A/ 2.c#/ 2.e/ 2.a/	.	2r	1ryy	.	8r	.	.
.	.	.	.	.	.	8a/	die	.
.	.	.	.	.	.	4a/	Freund-	.
!LO:TX:t=P:problem=brakująca pauza?	!	!	!	!	!	!	!	!
8ryy	.	.	.	.	.	.	.	.
8GG#X\ 8G#X\	.	.	4r	.	.	8g#X/	-schaft	.
8GGn\) 8Gn\	.	.	.	.	.	8a/	ist	.
2FF#\ 2F#\	2A/ 2d/ 2a/	.	4r	.	.	(>4ff#\	falsch,	.
.	.	.	4r	4.ryy	.	4ee\)	.	.
8r	8r	.	8r	.	.	8r	.	.
8FF#\ 8F#\	8A/ 8d/	.	8dd/	8f#\ 8a\	die	8dd\	die	.
=26	=26	=26	=26	=26	=26	=26	=26	=26
*	*	*	*2\right	*	*	*	*	*
4.GG\ 4.G\	4.B/ 4.d/ 4.e/	.	(>2.dd/	(<[>2.g\ 2.b\	Lie-	[>2.ee\	Lie-	.
8GG\ 8G\	8B/ 8d/ 8e/	.	.	.	.	.	.	.
!LO:TX:t=P:problem=all\right&colon; global	!	!	!	!	!	!	!	!
4EE\ 4E\	4B/ 4d/ 4g/	.	.	.	.	.	.	.
!	!	!	!	!LO:TX:t=P:4\right:problem	!	!LO:TX:t=P:4\right:problem	!	!
2.AA;</	2.G;>/ 2.A/ 2.c#/ 2.e/	.	4.cc#/)	4.g\]) 4.a\	.	4.ee;>\]	.	.
.	.	.	8cc#/	8g\ 8a\	-be	8cc#\	-be	.
.	.	.	4g/ 4a/	4A\	nur	4a/	nur	.
*	*	*	*v	*v	*	*	*	*
=27	=27	=27	=27	=27	=27	=27	=27
*	*^	*	*	*	*	*	*
4.DD/	8F#/L 8A/ 8d/	2.ryy	.	2.d/ 2.f#/ 2.a/	Traum!	2.dd\	Traum!	.
.	8F#/J 8A/ 8d/	.	.	.	.	.	.	.
.	2A/ 2d/ 2f#/	.	.	.	.	.	.	.
(<16EE/LL	.	.	.	.	.	.	.	.
16FF#/JJ)	.	.	.	.	.	.	.	.
(<16GG/LL	.	.	.	.	.	.	.	.
16AA/	.	.	.	.	.	.	.	.
16BB/	.	.	.	.	.	.	.	.
16C#/JJ)	.	.	.	.	.	.	.	.
8D\	8r	4r	.	2r	.	2r	.	.
8r	8d/	.	.	.	.	.	.	.
4r	4g/	2B-X\ 2d\	.	.	.	.	.	.
8r	(<8f#/L	.	.	4r	.	4r	.	.
8DD/ 8D/	8e/J)	.	.	.	.	.	.	.
*	*v	*v	*	*	*	*	*	*
=28	=28	=28	=28	=28	=28	=28	=28
[<2DD\ [>\2D	(<8A/L 8d/ 8f#/	.	1.r	.	1.r	.	.
.	8F#/ 8A/ 8d/	.	.	.	.	.	.
.	8G/ 8d/ 8e/	.	.	.	.	.	.
.	8G#X/ 8d/ 8e#X/	.	.	.	.	.	.
8DD\L] 8D\]	8A/) 8d/ 8f#/	.	.	.	.	.	.
16r	16r	.	.	.	.	.	.
16DD\Jk 16GG\ 16D\	16d/Jk 16f#/ 16a/	.	.	.	.	.	.
4DD\ 4D\	4d\ 4f#\ 4a\ 4dd\	.	.	.	.	.	.
4DD\ 4D\	4F#/ 4A/ 4d/	.	.	.	.	.	.
4r	4r	.	.	.	.	.	.
==	==	==	==	==	==	==	==
*-	*-	*-	*-	*-	*-	*-	*-
!!!system-decoration: g1,g2[{g3}]
!!!RDF**kern: > = above
!!!RDF**kern: < = below
!!!ENC: Filip Voros
!!!END: 2021-11-03
!!!EED: Jędrzej Mróz
!!!ESR: 2021-11-05
